src/icons/outline/users/administrator.svg

<svg width="24" height="24" viewBox="0 0 24 24" fill="none" xmlns="http://www.w3.org/2000/svg">
<g clip-path="url(#clip0_5032_1497)">
<path fill-rule="evenodd" clip-rule="evenodd" d="M7.53516 13.084C7.86431 13.084 8.18347 13.2348 8.37891 13.5146L9.78809 15.6533C10.3096 16.3862 10.1226 17.2752 9.9375 18.1562C9.9182 18.2482 9.89932 18.3401 9.88086 18.4316L8.6875 23H4.42773C3.0802 22.9999 2.00014 21.9405 2 20.6113C2 18.2624 3.00828 16.1629 4.63379 14.6836C5.00413 14.3538 5.40537 14.0438 5.82715 13.7939C6.1358 13.604 6.68115 13.354 7.13379 13.1641C7.26748 13.1041 7.40147 13.084 7.53516 13.084ZM7.34668 14.7246C6.93742 14.9037 6.75307 15.0136 6.6709 15.0635C6.3314 15.2634 6.01281 15.5039 5.68359 15.8037C4.305 17.0532 3.54297 18.7619 3.54297 20.6211C3.54298 21.1208 3.93403 21.5106 4.42773 21.5107H7.4834L8.36816 18.1025L8.41992 17.8525C8.53303 17.3131 8.65637 16.7034 8.5127 16.4932L7.34668 14.7246Z" fill="#3C3B44"/>
<path fill-rule="evenodd" clip-rule="evenodd" d="M16.4648 13.085C16.5986 13.085 16.7325 13.1141 16.8662 13.1641C17.3189 13.354 17.8642 13.604 18.1729 13.7939C18.5946 14.0438 18.9959 14.3538 19.3662 14.6836C20.9814 16.1629 22 18.2624 22 20.6113C21.9999 21.9305 20.9095 22.9998 19.5723 23H15.3125L14.1191 18.4316C14.1003 18.3338 14.0806 18.2354 14.0605 18.1367C13.8844 17.2685 13.704 16.3801 14.2119 15.6533L15.6211 13.5146C15.8165 13.2348 16.1357 13.085 16.4648 13.085ZM15.5186 16.4531C15.3437 16.703 15.4669 17.3031 15.5801 17.8428L15.6318 18.0918L16.5166 21.501H19.5723C20.0659 21.5008 20.4569 21.1109 20.457 20.6113C20.457 18.7622 19.6955 17.0426 18.3066 15.7832C17.9877 15.4934 17.6587 15.2532 17.3604 15.0732C17.2678 15.0033 17.0717 14.9038 16.6602 14.7139L15.5186 16.4531Z" fill="#3C3B44"/>
<path fill-rule="evenodd" clip-rule="evenodd" d="M12.6377 13.2344V13.3242L14.0576 20.7812C14.1295 21.081 13.9955 21.3908 13.7178 21.6006L12.3604 22.5898C12.2576 22.6597 12.134 22.7001 12.0107 22.7002C11.8873 22.7002 11.763 22.6598 11.6602 22.5898L10.3027 21.6104C10.0148 21.4005 9.89104 21.091 9.96289 20.7812L11.3623 13.334L11.3828 13.2441L11.2285 12.6748V12.665H12.7822L12.6377 13.2344ZM11.3828 20.6514L12 20.9805L12.6377 20.6514L12 15.7568L11.3828 20.6514Z" fill="#3C3B44"/>
<path fill-rule="evenodd" clip-rule="evenodd" d="M12 1C15.0555 1.0001 17.5352 3.40932 17.5352 6.37793C17.535 9.34639 15.0554 11.7548 12 11.7549C8.94456 11.7549 6.46503 9.34645 6.46484 6.37793C6.46484 3.40926 8.94445 1 12 1ZM12 2.49902C9.79836 2.49902 8.00781 4.23889 8.00781 6.37793C8.008 8.51682 9.79847 10.2559 12 10.2559C14.2014 10.2558 15.991 8.51676 15.9912 6.37793C15.9912 4.23895 14.2016 2.49912 12 2.49902Z" fill="#3C3B44"/>
</g>
<defs>
<clipPath id="clip0_5032_1497">
<rect width="24" height="24" fill="white"/>
</clipPath>
</defs>
</svg>

<svg xmlns="http://www.w3.org/2000/svg" width="24" height="24" fill="none" viewBox="0 0 24 24"><g fill="currentColor" fill-rule="evenodd" clip-path="url(#a)" clip-rule="evenodd"><path d="M7.535 13.084c.33 0 .648.15.844.43l1.41 2.14c.575.809.287 1.808.092 2.778L8.687 23h-4.26C3.08 23 2 21.94 2 20.611a7.97 7.97 0 0 1 2.634-5.927c.37-.33.771-.64 1.193-.89.309-.19.854-.44 1.307-.63a1 1 0 0 1 .401-.08m-.185 1.64a5.5 5.5 0 0 0-1.666 1.08 6.43 6.43 0 0 0-2.141 4.817c0 .5.391.89.885.89h3.055l.885-3.408.052-.25c.113-.54.236-1.15.093-1.36zm9.115-1.639c.134 0 .268.03.401.08.453.189.998.439 1.307.629.422.25.823.56 1.193.89C20.981 16.163 22 18.262 22 20.61c0 1.321-1.09 2.39-2.428 2.39h-4.26l-1.193-4.568c-.185-.96-.473-1.97.093-2.779l1.41-2.138c.194-.28.514-.43.843-.43m-.946 3.368c-.175.25-.052.85.061 1.39l.052.249.885 3.409h3.055a.88.88 0 0 0 .885-.89 6.46 6.46 0 0 0-2.15-4.828 6 6 0 0 0-.947-.71c-.092-.07-.288-.17-.7-.36zm-2.881-3.219v.09l1.42 7.457c.072.3-.062.61-.34.82l-1.358.989a.63.63 0 0 1-.35.11.63.63 0 0 1-.35-.11l-1.357-.98c-.288-.21-.412-.519-.34-.829l1.4-7.447.02-.09-.154-.57v-.009h1.553zm-1.255 7.417.617.33.638-.33L12 15.757zM12 1c3.056 0 5.535 2.41 5.535 5.378s-2.48 5.377-5.535 5.377-5.535-2.409-5.535-5.377S8.945 1 12 1m0 1.499c-2.202 0-3.992 1.74-3.992 3.879s1.79 3.878 3.992 3.878 3.991-1.74 3.991-3.878S14.201 2.499 12 2.499"/></g><defs><clipPath id="a"><path fill="currentColor" d="M0 0h24v24H0z"/></clipPath></defs></svg>
